X: 241
T: Huzza my Boys
%%VWML:Prestons1794-3056d-p102-0
F:http://www.vwml.org/record/Prestons1794/3056d/p102
Z: 2014 John Chambers <jc:trillian.mit.edu>
B: Preston "Twenty four Country Dances for the Year 1794" p.201 #1
F: http://www.vwml.org/browse/browse-collections-dance-tune-books/browse-prestons1794# 2014-8-10
N: There is no tune numbered 241, but there are two 243s, so I renumbered 242 and the 1st 243 as 241 and 242.
M: 2/4
L: 1/8
K: D
|:\
d>edA | d>edA | BAGF | EDEA, |\
d>edA | cea2 | BdB^G | A2A,2 :|
|:\
A>BAG | Fdd2 | e>fge | cAA2 |\
G>ABD | Ec eg | fdec | d2D2 :|
|:\
ddd2 | eee2 | f2ed | cBA2 |\
fff2 | ggg2 | fdec | d2D2 :|
% - - - - - - - - - - - - - - - - - - - - - - - - -
%%begintext align
%% Turn your Part.r with the Right hand & cast off 1
%% Cu: .| Turn with the left hand :| Set 3 & 3 top &
%% bottom :|. Set 3 & 3 sideways :|: Hands 6 half
%% round & back again :||
%%endtext
% - - - - - - - - - - - - - - - - - - - - - - - - -
T: le Laponois
%R: march, hornpipe
Z: 2014 John Chambers <jc:trillian.mit.edu>
B: Preston "Twenty four Country Dances for the Year 1794" p.101 #2
F: http://www.vwml.org/browse/browse-collections-dance-tune-books/browse-prestons1794# 2014-8-10
N: There is no tune numbered 241, but there are two 243s, so I renumbered 242 and the 1st 243 as 241 and 242.
M: 2/4
L: 1/8
K: D
|:\
d2f2 | e2g2 | f>dc>d | e2A2 |\
d2f2 | e2g2 | ((3fed) ((3edc) | d2D2 :|
|:\
A>GF>G | A2d2 | {B}A>GF>A | G2E2 |\
{B}A>GF>G | A2a2 | ((3fed) ((3edc) | d2D2 :|
% - - - - - - - - - - - - - - - - - - - - - - - - -
%%begintext align
%% Foot it & right hands across half round .|
%% Foot it & left hands back again :|
%% Lead down the middle up again to the 2d
%% Cu: place :|. Allemande :|:
%%endtext
% - - - - - - - - - - - - - - - - - - - - - - - - -
